X: 1
T: Mire O'Keeffe's
M: 4/4
L: 1/8
R: reel
K: Dmaj
AF~F2 DEFA|dABF A2 Bc|df~f2 bafb|afdf eB~B2|
AF~F2 DEFA|dABF A2 Bc|df~f2 bafb|afeg fddB:|
Adfd edcd|(3Bcd AF DEFD|B,EGB degb|afdf eB~B2|
AF~F2 DEFA|dABF A2 Bc|df~f2 bafb|afeg fddB:|
